assets/fc/fc-todo-list.svg

<svg xmlns="http://www.w3.org/2000/svg" width="100%" height="100%" viewBox="0 0 48 48"><g fill="#3F51B5"><path d="M17.8 18.1l-7.4 7.3-4.2-4.1L4 23.5l6.4 6.4 9.6-9.6zM17.8 5.1l-7.4 7.3-4.2-4.1L4 10.5l6.4 6.4L20 7.3zM17.8 31.1l-7.4 7.3-4.2-4.1L4 36.5l6.4 6.4 9.6-9.6z"/></g><g fill="#90CAF9"><path d="M24 22h20v4H24zM24 9h20v4H24zM24 35h20v4H24z"/></g></svg>

<svg xmlns="http://www.w3.org/2000/svg" width="100%" height="100%" viewBox="0 0 48 48"><g fill="#3F51B5"><path d="M17.8 18.1L10.4 25.4 6.2 21.3 4 23.5 10.4 29.9 20 20.3zM17.8 5.1L10.4 12.4 6.2 8.3 4 10.5 10.4 16.9 20 7.3zM17.8 31.1L10.4 38.4 6.2 34.3 4 36.5 10.4 42.9 20 33.3z"/></g><g fill="#90CAF9"><path d="M24 22H44V26H24zM24 9H44V13H24zM24 35H44V39H24z"/></g></svg>
